X:1
T:[ID 2-72b]
T:[ID 2-72b]
T:Bezeichnung standardisiert: Menuett Men\"uet
T:Urheber unbekannt Datum in der hier transkribierten schriftlichen Quelle: 1767
C:Urheber unbekannt
C:Datum in der hier transkribierten schriftlichen Quelle: 1767
L:1/8
M:3/4
K:G
V:1 treble 
V:1
 G2 B2 d2 | FA c4 | Bd g2 e2 |{d} c4 B2 | AF D2 D2 | BGDGBd |{d} c2 c2 B2 |{B} A6 :: d2 f2 a2 | %9
 (3c'ba b4 | e2 a2 g2 |{g} f6 | gdBGce | d2 c2 B2 | AcBAGF |{F} G6 :| %16

